src/img/waterfall.svg

<svg width="100" height="100" viewBox="0 0 100 100" fill="none" xmlns="http://www.w3.org/2000/svg">
<path d="M22.2664 37.497C28.7301 37.497 34.2404 33.3846 36.3858 27.6351L46.9647 30.5333C46.9647 30.5581 46.9578 30.5815 46.9578 30.6063C46.9578 33.6465 49.4188 36.1188 52.4448 36.1188C55.3049 36.1188 57.6328 33.9014 57.8824 31.0928L63.9003 30.0854C64.7562 32.012 66.6726 33.3626 68.9058 33.3626C70.1993 33.3626 71.3722 32.8927 72.3118 32.1374L87.4668 43.5566L82.3982 44.4055L82.8482 47.1246L92.4312 45.519L90.8345 35.8915L88.128 36.3449L88.9374 41.222L73.9744 29.9476C74.2419 29.2999 74.3927 28.5929 74.3927 27.8501C74.3927 24.81 71.9318 22.3376 68.9058 22.3376C66.0457 22.3376 63.7178 24.555 63.4682 27.3636L57.4503 28.371C56.5944 26.4444 54.678 25.0938 52.4448 25.0938C50.4105 25.0938 48.6533 26.2239 47.7054 27.879L37.1115 24.9767C37.2624 24.1181 37.3556 23.2389 37.3556 22.3376C37.3556 13.9793 30.5861 7.17822 22.2664 7.17822C13.9468 7.17822 7.17725 13.9793 7.17725 22.3376C7.17725 30.6959 13.9468 37.497 22.2664 37.497ZM68.9058 25.0938C70.4188 25.0938 71.6493 26.33 71.6493 27.8501C71.6493 29.3702 70.4188 30.6063 68.9058 30.6063C67.3927 30.6063 66.1623 29.3702 66.1623 27.8501C66.1623 26.33 67.3927 25.0938 68.9058 25.0938ZM52.4448 27.8501C53.9579 27.8501 55.1883 29.0863 55.1883 30.6063C55.1883 32.1264 53.9579 33.3626 52.4448 33.3626C50.9318 33.3626 49.7013 32.1264 49.7013 30.6063C49.7013 29.0863 50.9318 27.8501 52.4448 27.8501ZM22.2664 9.93447C29.0744 9.93447 34.6121 15.4993 34.6121 22.3376C34.6121 29.1759 29.0744 34.7407 22.2664 34.7407C15.4585 34.7407 9.92074 29.1759 9.92074 22.3376C9.92074 15.4993 15.4585 9.93447 22.2664 9.93447Z" fill="#616F8A"/>
<path d="M35.0508 87.9907C35.0508 88.543 35.4985 88.9907 36.0508 88.9907H47.7682C48.3205 88.9907 48.7682 88.543 48.7682 87.9907V50.8907C48.7682 50.3384 48.3205 49.8907 47.7682 49.8907H36.0508C35.4985 49.8907 35.0508 50.3384 35.0508 50.8907V87.9907ZM37.7943 53.647C37.7943 53.0947 38.242 52.647 38.7943 52.647H45.0247C45.577 52.647 46.0247 53.0947 46.0247 53.647V85.2345C46.0247 85.7868 45.577 86.2345 45.0247 86.2345H38.7943C38.242 86.2345 37.7943 85.7868 37.7943 85.2345V53.647Z" fill="#616F8A"/>
<path d="M54.7404 87.9907C54.7404 88.543 55.1881 88.9907 55.7404 88.9907H67.4578C68.0101 88.9907 68.4578 88.543 68.4578 87.9907V44.0001C68.4578 43.4478 68.0101 43.0001 67.4578 43.0001H55.7404C55.1881 43.0001 54.7404 43.4478 54.7404 44.0001V87.9907ZM57.4839 46.7563C57.4839 46.204 57.9316 45.7563 58.4839 45.7563H64.7144C65.2666 45.7563 65.7144 46.204 65.7144 46.7563V85.2345C65.7144 85.7867 65.2666 86.2345 64.7144 86.2345H58.4839C57.9316 86.2345 57.4839 85.7867 57.4839 85.2345V46.7563Z" fill="#616F8A"/>
<path d="M15.361 87.9907C15.361 88.543 15.8087 88.9907 16.361 88.9907H28.0785C28.6308 88.9907 29.0785 88.543 29.0785 87.9907V44.0001C29.0785 43.4478 28.6308 43.0001 28.0785 43.0001H16.361C15.8087 43.0001 15.361 43.4478 15.361 44.0001V87.9907ZM18.1045 46.7563C18.1045 46.204 18.5522 45.7563 19.1045 45.7563H25.335C25.8873 45.7563 26.335 46.204 26.335 46.7563V85.2345C26.335 85.7867 25.8873 86.2345 25.335 86.2345H19.1045C18.5522 86.2345 18.1045 85.7867 18.1045 85.2345V46.7563Z" fill="#616F8A"/>
<path d="M74.4298 87.9907C74.4298 88.543 74.8775 88.9907 75.4298 88.9907H87.1473C87.6995 88.9907 88.1473 88.543 88.1473 87.9907V56.4032C88.1473 55.8509 87.6995 55.4032 87.1473 55.4032H75.4298C74.8775 55.4032 74.4298 55.8509 74.4298 56.4032V87.9907ZM77.1733 59.1594C77.1733 58.6071 77.621 58.1594 78.1733 58.1594H84.4038C84.956 58.1594 85.4038 58.6071 85.4038 59.1594V85.2344C85.4038 85.7867 84.956 86.2344 84.4038 86.2344H78.1733C77.621 86.2344 77.1733 85.7867 77.1733 85.2344V59.1594Z" fill="#616F8A"/>
<path d="M23.295 13.6001H18.7854C18.2041 13.6001 17.7333 14.0784 17.7333 14.6689V21.4682H16.4133C15.8319 21.4682 15.3611 21.9465 15.3611 22.5371C15.3611 23.1276 15.8319 23.6065 16.4133 23.6065H17.7333V25.0795H16.4133C15.8319 25.0795 15.3611 25.5584 15.3611 26.149C15.3611 26.7395 15.8319 27.2184 16.4133 27.2184H17.7333V29.3307C17.7333 29.9212 18.2041 30.4001 18.7854 30.4001C19.3668 30.4001 19.8376 29.9207 19.8376 29.3307V27.2185H25.6062C26.187 27.2185 26.6583 26.7397 26.6583 26.149C26.6583 25.5584 26.1875 25.0796 25.6062 25.0796H19.8376V23.6066H23.2956C25.0533 23.6066 26.5358 23.1046 27.5834 22.155C28.5598 21.2703 29.0972 20.0562 29.0972 18.7366C29.0972 16.2467 27.063 13.6001 23.295 13.6001ZM26.1813 20.5598C25.5259 21.1544 24.5278 21.4682 23.295 21.4682H19.8376V15.7373H23.295C25.7219 15.7373 26.9923 17.2456 26.9923 18.7359C26.9924 19.4377 26.7045 20.0856 26.1813 20.5598Z" fill="#616F8A"/>
</svg>

<svg width="100" height="100" fill="none" xmlns="http://www.w3.org/2000/svg"><path d="M22.266 37.497c6.464 0 11.974-4.112 14.12-9.862l10.579 2.898c0 .025-.007.048-.007.073 0 3.04 2.46 5.513 5.487 5.513 2.86 0 5.188-2.218 5.437-5.026l6.018-1.008c.856 1.927 2.773 3.278 5.006 3.278 1.293 0 2.466-.47 3.406-1.226l15.155 11.42-5.069.849.45 2.719 9.583-1.606-1.596-9.627-2.707.453.81 4.877-14.964-11.274a5.48 5.48 0 0 0 .419-2.098c0-3.04-2.461-5.512-5.487-5.512-2.86 0-5.188 2.217-5.438 5.026L57.45 28.37c-.856-1.927-2.772-3.277-5.005-3.277-2.035 0-3.792 1.13-4.74 2.785l-10.593-2.902c.15-.859.244-1.738.244-2.64 0-8.358-6.77-15.159-15.09-15.159S7.177 13.98 7.177 22.338c0 8.358 6.77 15.159 15.09 15.159zm46.64-12.403a2.753 2.753 0 0 1 2.743 2.756c0 1.52-1.23 2.756-2.743 2.756a2.753 2.753 0 0 1-2.744-2.756c0-1.52 1.23-2.756 2.744-2.756zM52.445 27.85a2.753 2.753 0 0 1 2.743 2.756c0 1.52-1.23 2.757-2.743 2.757a2.753 2.753 0 0 1-2.744-2.757c0-1.52 1.23-2.756 2.744-2.756zM22.266 9.934c6.808 0 12.346 5.565 12.346 12.404 0 6.838-5.538 12.403-12.346 12.403-6.807 0-12.345-5.565-12.345-12.403 0-6.839 5.538-12.404 12.345-12.404zm12.785 78.057a1 1 0 0 0 1 1h11.717a1 1 0 0 0 1-1v-37.1a1 1 0 0 0-1-1H36.051a1 1 0 0 0-1 1v37.1zm2.743-34.344a1 1 0 0 1 1-1h6.23a1 1 0 0 1 1 1v31.587a1 1 0 0 1-1 1h-6.23a1 1 0 0 1-1-1V53.647z" fill="#616F8A"/><path d="M54.74 87.99a1 1 0 0 0 1 1h11.718a1 1 0 0 0 1-1V44a1 1 0 0 0-1-1H55.74a1 1 0 0 0-1 1v43.99zm2.744-41.234a1 1 0 0 1 1-1h6.23a1 1 0 0 1 1 1v38.478a1 1 0 0 1-1 1h-6.23a1 1 0 0 1-1-1V46.756zM15.36 87.991a1 1 0 0 0 1 1h11.717a1 1 0 0 0 1-1V44a1 1 0 0 0-1-1H16.361a1 1 0 0 0-1 1v43.99zm2.744-41.235a1 1 0 0 1 1-1h6.23a1 1 0 0 1 1 1v38.478a1 1 0 0 1-1 1h-6.23a1 1 0 0 1-1-1V46.756zM74.43 87.991a1 1 0 0 0 1 1h11.717a1 1 0 0 0 1-1V56.403a1 1 0 0 0-1-1H75.43a1 1 0 0 0-1 1v31.588zm2.743-28.832a1 1 0 0 1 1-1h6.23a1 1 0 0 1 1 1v26.075a1 1 0 0 1-1 1h-6.23a1 1 0 0 1-1-1V59.16zM23.295 13.6h-4.51a1.06 1.06 0 0 0-1.052 1.069v6.8h-1.32a1.06 1.06 0 0 0-1.052 1.068c0 .59.47 1.07 1.052 1.07h1.32v1.473h-1.32a1.06 1.06 0 0 0-1.052 1.069c0 .59.47 1.07 1.052 1.07h1.32v2.112c0 .59.471 1.07 1.052 1.07.582 0 1.053-.48 1.053-1.07v-2.113h5.768c.581 0 1.052-.478 1.052-1.069 0-.59-.47-1.07-1.052-1.07h-5.768v-1.472h3.458c1.757 0 3.24-.502 4.287-1.452a4.56 4.56 0 0 0 1.514-3.418c0-2.49-2.034-5.137-5.802-5.137zm2.886 6.96c-.655.594-1.653.908-2.886.908h-3.457v-5.73h3.457c2.427 0 3.697 1.508 3.697 2.998 0 .702-.288 1.35-.81 1.824z" fill="#616F8A"/></svg>
